Papirus/24x24/apps/seamonkey.svg

<?xml version="1.0" encoding="UTF-8" standalone="no"?>
<svg xmlns="http://www.w3.org/2000/svg" height="24" width="24" version="1.1" viewBox="0 0 24 24">
 <path d="m12 2a10 10 0 0 0 -10 10 10 10 0 0 0 10 10 10 10 0 0 0 10 -10 10 10 0 0 0 -10 -10z" style="fill:#4882e3;"/>
 <path style="fill:#3a68b6;" d="M 12,2 A 10,10 0 0 0 2.0839844,10.804688 C 3.0367837,10.397382 3.9255366,10.204441 4.765625,10.199219 h 0.00195 c 0.8478854,-0.0053 1.650832,0.157662 2.4355469,0.394531 2.3553021,0.143547 4.467674,1.05453 6.871094,1.337891 0.267046,0.03148 0.537521,0.05428 0.8125,0.06836 2.399561,-0.106112 5.425498,-1.224476 6.96289,-1.664062 A 10,10 0 0 0 12,2 Z"/>
 <path opacity=".2" d="m2.0098 12.207a10 10 0 0 0 -0.0098 0.293 10 10 0 0 0 10 10 10 10 0 0 0 10 -10 10 10 0 0 0 -0.0098 -0.20703 10 10 0 0 1 -9.99 9.707 10 10 0 0 1 -9.9902 -9.793z"/>
 <path style="fill:#7767c0;stroke-width:0.25413883" d="M 21.849609 10.335938 C 20.312217 10.775524 17.28628 11.893888 14.886719 12 C 10.487052 11.774755 7.1966771 9.0765501 2.0097656 11.742188 A 10 10 0 0 0 2 12 A 10 10 0 0 0 2.109375 13.394531 C 2.6135388 13.286675 3.4180917 13.264936 4.7675781 13.587891 C 7.6843841 14.285929 11.810881 13.894842 14.154297 13.171875 C 16.497719 12.448907 18.878848 12.16854 20.25 12.09375 C 20.951346 12.055497 21.546942 12.314881 21.978516 12.582031 A 10 10 0 0 0 22 12 A 10 10 0 0 0 21.849609 10.335938 z"/>
 <path style="fill:#595afd;stroke-width:0.25413883" d="M 2.0175781 11.525391 A 10 10 0 0 0 2 12 A 10 10 0 0 0 2.1503906 13.65625 C 2.7086132 13.632569 3.5937757 13.686092 5.0605469 14.037109 C 7.9078959 14.718528 10.610815 13.627631 12.898438 12.921875 C 13.038476 12.878675 13.178724 12.8435 13.316406 12.814453 C 13.314906 12.814414 13.310194 12.814491 13.308594 12.814453 C 9.4392801 11.852338 7.9063842 11.669119 2.0175781 11.525391 z M 13.316406 12.814453 C 13.812148 12.825923 14.367425 12.797953 14.947266 12.751953 C 14.427966 12.690033 13.883196 12.694883 13.316406 12.814453 z M 14.947266 12.751953 C 16.362516 12.920701 17.579638 13.588904 18.474609 13.804688 C 20.098734 14.196272 21.097859 14.261459 21.734375 14.236328 A 10 10 0 0 0 22 12 A 10 10 0 0 0 21.988281 11.777344 C 19.741497 12.091115 17.126027 12.579107 14.947266 12.751953 z"/>
 <path style="fill:#9182d7;stroke-width:0.25413883" d="M 4.765625 10.199219 C 3.9255366 10.204441 3.0367837 10.397384 2.0839844 10.804688 A 10 10 0 0 0 2 12 A 10 10 0 0 0 2.03125 12.601562 C 2.464282 12.32793 3.0622345 12.054638 3.7792969 12.09375 C 5.1504439 12.16854 8.7659595 14.761405 11.109375 15.484375 C 13.452787 16.207342 16.344911 13.778115 19.261719 13.080078 C 20.620487 12.754903 21.425441 12.884193 21.925781 13.111328 A 10 10 0 0 0 22 12 A 10 10 0 0 0 21.951172 11.035156 C 21.617444 11.032827 21.219127 11.057168 20.734375 11.21875 C 19.687317 11.567769 16.295801 12.710559 13.751953 12.640625 C 10.488388 12.428116 7.9378951 10.17926 4.7675781 10.199219 L 4.765625 10.199219 z"/>
 <path style="font-variant-ligatures:normal;font-variant-position:normal;font-variant-caps:normal;font-variant-numeric:normal;font-variant-alternates:normal;font-feature-settings:normal;;text-orientation:mixed;shape-padding:0;vector-effect:none;fill:#50beee;stroke-width:0.3686088;stroke-linecap:round;stroke-linejoin:round;;;" d="M 16.522968,4.3252363 C 15.4351,4.2712923 14.370402,4.8157325 13.736808,5.6880816 a 0.18432284,0.18432284 0 0 0 -10e-4,8.055e-4 C 12.98014,6.7437212 12.581736,7.984414 12.251286,9.19283 a 0.18432284,0.18432284 0 0 0 0,8.06e-4 c -0.456853,1.692111 -1.228304,3.293589 -2.19941,4.756636 -2.0129415,3.017813 -4.7760205,5.644004 -8.1770735,6.969731 a 0.18432284,0.18432284 0 0 0 -0.05831,0.03743 l -0.136793,0.12743 a 0.18432284,0.18432284 0 0 0 0.146876,0.317493 c 2.38497,-0.280198 4.29683,-1.868243 6.056121,-3.277885 1.41423,-0.138532 2.8092045,-0.414688 4.1763665,-0.779693 a 0.18432284,0.18432284 0 0 0 0.0021,-8.05e-4 c 1.921413,-0.54014 3.894008,-1.392156 5.20518,-3.011508 1.306939,-1.602847 1.526345,-3.833472 1.048875,-5.765988 C 18.152859,7.794197 17.598241,7.0026517 16.754387,6.8357436 16.731704,6.755931 16.7098,6.6772098 16.687424,6.5967239 16.870404,6.3962412 17.095537,6.1805226 17.277056,5.917821 17.478766,5.6258951 17.620188,5.2647268 17.516798,4.8645506 a 0.18432284,0.18432284 0 0 0 -0.0274,-0.059004 C 17.266899,4.4845749 16.889215,4.3260007 16.522531,4.3253477 Z"/>
 <path style="fill:#7767c0;stroke-width:0.25413883" d="M 21.849609 10.335938 C 20.312217 10.775524 17.28628 11.893888 14.886719 12 C 10.487052 11.774755 7.1966771 9.0765501 2.0097656 11.742188 A 10 10 0 0 0 2 12 A 10 10 0 0 0 2.109375 13.394531 C 2.6135388 13.286675 3.4180917 13.264936 4.7675781 13.587891 C 7.6843841 14.285929 11.810881 13.894842 14.154297 13.171875 C 16.497719 12.448907 18.878848 12.16854 20.25 12.09375 C 20.951346 12.055497 21.546942 12.314881 21.978516 12.582031 A 10 10 0 0 0 22 12 A 10 10 0 0 0 21.849609 10.335938 z"/>
 <path style="fill:#595afd;stroke-width:0.25413883" d="M 2.0175781 11.525391 A 10 10 0 0 0 2 12 A 10 10 0 0 0 2.1503906 13.65625 C 2.7086132 13.632569 3.5937757 13.686092 5.0605469 14.037109 C 7.9078959 14.718528 10.610815 13.627631 12.898438 12.921875 C 13.038476 12.878675 13.178724 12.8435 13.316406 12.814453 C 13.314906 12.814414 13.310194 12.814491 13.308594 12.814453 C 9.4392801 11.852338 7.9063842 11.669119 2.0175781 11.525391 z M 13.316406 12.814453 C 13.812148 12.825923 14.367425 12.797953 14.947266 12.751953 C 14.427966 12.690033 13.883196 12.694883 13.316406 12.814453 z M 14.947266 12.751953 C 16.362516 12.920701 17.579638 13.588904 18.474609 13.804688 C 20.098734 14.196272 21.097859 14.261459 21.734375 14.236328 A 10 10 0 0 0 22 12 A 10 10 0 0 0 21.988281 11.777344 C 19.741497 12.091115 17.126027 12.579107 14.947266 12.751953 z"/>
 <path style="fill:#9182d7;stroke-width:0.25413883" d="M 4.765625 10.199219 C 3.9255366 10.204441 3.0367837 10.397384 2.0839844 10.804688 A 10 10 0 0 0 2 12 A 10 10 0 0 0 2.03125 12.601562 C 2.464282 12.32793 3.0622345 12.054638 3.7792969 12.09375 C 5.1504439 12.16854 8.7659595 14.761405 11.109375 15.484375 C 13.452787 16.207342 16.344911 13.778115 19.261719 13.080078 C 20.620487 12.754903 21.425441 12.884193 21.925781 13.111328 A 10 10 0 0 0 22 12 A 10 10 0 0 0 21.951172 11.035156 C 21.617444 11.032827 21.219127 11.057168 20.734375 11.21875 C 19.687317 11.567769 16.295801 12.710559 13.751953 12.640625 C 10.488388 12.428116 7.9378951 10.17926 4.7675781 10.199219 L 4.765625 10.199219 z"/>
 <path d="M 16.522968,4.3252363 C 15.4351,4.2712923 14.370402,4.8157325 13.736808,5.6880816 a 0.18432284,0.18432284 0 0 0 -10e-4,8.055e-4 C 12.98014,6.7437212 12.581736,7.984414 12.251286,9.19283 a 0.18432284,0.18432284 0 0 0 0,8.06e-4 c -0.456853,1.692111 -1.228304,3.293589 -2.19941,4.756636 -2.0129415,3.017813 -4.7760205,5.644004 -8.1770735,6.969731 a 0.18432284,0.18432284 0 0 0 -0.05831,0.03743 l -0.136793,0.12743 a 0.18432284,0.18432284 0 0 0 0.146876,0.317493 c 2.38497,-0.280198 4.29683,-1.868243 6.056121,-3.277885 1.41423,-0.138532 2.8092045,-0.414688 4.1763665,-0.779693 a 0.18432284,0.18432284 0 0 0 0.0021,-8.05e-4 c 1.921413,-0.54014 3.894008,-1.392156 5.20518,-3.011508 1.306939,-1.602847 1.526345,-3.833472 1.048875,-5.765988 C 18.152859,7.794197 17.598241,7.0026517 16.754387,6.8357436 16.731704,6.755931 16.7098,6.6772098 16.687424,6.5967239 16.870404,6.3962412 17.095537,6.1805226 17.277056,5.917821 17.478766,5.6258951 17.620188,5.2647268 17.516798,4.8645506 a 0.18432284,0.18432284 0 0 0 -0.0274,-0.059004 C 17.266899,4.4845749 16.889215,4.3260007 16.522531,4.3253477 Z" style="font-variant-ligatures:normal;font-variant-position:normal;font-variant-caps:normal;font-variant-numeric:normal;font-variant-alternates:normal;font-feature-settings:normal;;text-orientation:mixed;shape-padding:0;vector-effect:none;fill:#50beee;stroke-width:0.3686088;stroke-linecap:round;stroke-linejoin:round;;;"/>
 <path opacity=".2" d="m12 2a10 10 0 0 0 -10 10 10 10 0 0 0 0.0098 0.207 10 10 0 0 1 9.9902 -9.707 10 10 0 0 1 9.99 9.793 10 10 0 0 0 0.01 -0.293 10 10 0 0 0 -10 -10z" fill="#ffffff"/>
</svg>

<?xml version="1.0" encoding="UTF-8" standalone="no"?>
<svg xmlns="http://www.w3.org/2000/svg" height="24" width="24" version="1.1" viewBox="0 0 24 24">
 <path style="fill:#4882e3" d="m12 2a10 10 0 0 0 -10 10 10 10 0 0 0 10 10 10 10 0 0 0 10 -10 10 10 0 0 0 -10 -10z"/>
 <path style="fill:#3a68b6" d="m12 2a10 10 0 0 0 -9.916 8.805c0.9528-0.408 1.8415-0.601 2.6816-0.606h0.00195c0.84789-0.0053 1.6508 0.15766 2.4355 0.39453 2.3553 0.14355 4.4677 1.0545 6.8711 1.3379 0.26705 0.03148 0.53752 0.05428 0.8125 0.06836 2.3996-0.10611 5.4255-1.2245 6.9629-1.6641a10 10 0 0 0 -9.85 -8.336z"/>
 <path opacity=".2" d="m2.0098 12.207a10 10 0 0 0 -0.0098 0.293 10 10 0 0 0 10 10 10 10 0 0 0 10 -10 10 10 0 0 0 -0.0098 -0.20703 10 10 0 0 1 -9.99 9.707 10 10 0 0 1 -9.9902 -9.793z"/>
 <path style="fill:#7767c0" d="m21.85 10.336c-1.538 0.44-4.564 1.558-6.963 1.664-4.4-0.225-7.6903-2.9234-12.877-0.258a10 10 0 0 0 -0.01 0.258 10 10 0 0 0 0.1094 1.395c0.5041-0.108 1.3087-0.13 2.6582 0.193 2.9168 0.698 7.0434 0.307 9.3864-0.416 2.344-0.723 4.725-1.003 6.096-1.078 0.701-0.039 1.297 0.221 1.729 0.488a10 10 0 0 0 0.021 -0.582 10 10 0 0 0 -0.15 -1.664z"/>
 <path style="fill:#595afd" d="m2.0176 11.525a10 10 0 0 0 -0.0176 0.475 10 10 0 0 0 0.1504 1.656c0.5582-0.023 1.4434 0.03 2.9101 0.381 2.8474 0.682 5.5505-0.409 7.8375-1.115 0.14-0.043 0.281-0.078 0.418-0.108h-0.007c-3.8697-0.962-5.4026-1.145-11.291-1.289zm11.298 1.289c0.496 0.012 1.051-0.016 1.631-0.062-0.519-0.062-1.064-0.057-1.631 0.062zm1.631-0.062c1.416 0.169 2.633 0.837 3.528 1.053 1.624 0.391 2.623 0.456 3.259 0.431a10 10 0 0 0 0.266 -2.236 10 10 0 0 0 -0.012 -0.223c-2.247 0.314-4.862 0.802-7.041 0.975z"/>
 <path style="fill:#9182d7" d="m4.7656 10.199c-0.8401 0.005-1.7288 0.198-2.6816 0.606a10 10 0 0 0 -0.084 1.195 10 10 0 0 0 0.0312 0.602c0.4331-0.274 1.031-0.547 1.7481-0.508 1.3711 0.075 4.9867 2.667 7.3297 3.39 2.344 0.723 5.236-1.706 8.153-2.404 1.358-0.325 2.163-0.196 2.664 0.031a10 10 0 0 0 0.074 -1.111 10 10 0 0 0 -0.049 -0.965c-0.334-0.002-0.732 0.022-1.217 0.184-1.047 0.349-4.438 1.492-6.982 1.422-3.264-0.213-5.8141-2.462-8.9844-2.442h-0.002z"/>
 <path style="fill:#50beee" d="m16.523 4.3252c-1.088-0.0539-2.153 0.4905-2.786 1.3629a0.18432 0.18432 0 0 0 -0.001 0.0008055c-0.756 1.0548-1.154 2.2955-1.485 3.5039a0.18432 0.18432 0 0 0 0 0.000806c-0.45685 1.6921-1.2283 3.2936-2.1994 4.7566-2.0129 3.0178-4.776 5.644-8.1771 6.9697a0.18432 0.18432 0 0 0 -0.05831 0.03743l-0.13679 0.12743a0.18432 0.18432 0 0 0 0.14688 0.31749c2.385-0.2802 4.2968-1.8682 6.0561-3.2779 1.4142-0.13853 2.8092-0.41469 4.1764-0.77969a0.18432 0.18432 0 0 0 0.0021 -0.000805c1.9214-0.54014 3.894-1.3922 5.2052-3.0115 1.3069-1.6028 1.5263-3.8335 1.0489-5.766-0.162-0.7703-0.717-1.5618-1.561-1.7288-0.022-0.0798-0.044-0.1585-0.067-0.239 0.183-0.2005 0.409-0.4162 0.59-0.6789 0.202-0.2919 0.343-0.6531 0.24-1.0532a0.18432 0.18432 0 0 0 -0.0274 -0.059004c-0.223-0.321-0.601-0.4796-0.967-0.4803z"/>
 <path opacity=".2" d="m12 2a10 10 0 0 0 -10 10 10 10 0 0 0 0.0098 0.207 10 10 0 0 1 9.9902 -9.707 10 10 0 0 1 9.99 9.793 10 10 0 0 0 0.01 -0.293 10 10 0 0 0 -10 -10z" fill="#ffffff"/>
</svg>
